;FLAVOR:Marlin
;TIME:7515
;Filament used: 5.3158m
;Layer height: 0.2
;MINX:82
;MINY:86.6
;MINZ:0.2
;MAXX:153
;MAXY:148.4
;MAXZ:16
;Generated with Cura_SteamEngine 4.13.1
M140 S60
M105
M190 S60
M104 S195
M105
M109 S195
M82 ;absolute extrusion mode
; Ender 3 Custom Start G-code
G92 E0 ; Reset Extruder
G28 ; Home all axes
G1 Z2.0 F3000 ; Move Z Axis up little to prevent scratching of Heat Bed
G1 X0.1 Y20 Z0.3 F5000.0 ; Move to start position
G1 X0.1 Y200.0 Z0.3 F1500.0 E15 ; Draw the first line
G1 X0.4 Y200.0 Z0.3 F5000.0 ; Move to side a little
G1 X0.4 Y20 Z0.3 F1500.0 E30 ; Draw the second line
G92 E0 ; Reset Extruder
G1 Z2.0 F3000 ; Move Z Axis up little to prevent scratching of Heat Bed
G1 X5 Y20 Z0.3 F5000.0 ; Move over to prevent blob squish
G92 E0
G92 E0
G1 F1800 E-2
;LAYER_COUNT:80
;LAYER:0
M107
G0 F6000 X84.453 Y91.626 Z0.2
;TYPE:SKIRT
G1 F1800 E0
G1 F1200 X84.992 Y91.174 E0.0234
G1 X85.245 Y90.984 E0.03392
G1 X85.508 Y90.808 E0.04445
G1 X85.754 Y90.662 E0.05396
G1 X86.367 Y90.338 E0.07702
G1 X86.665 Y90.201 E0.08793
G1 X86.954 Y90.086 E0.09828
G1 X87.247 Y89.987 E0.10856
G1 X87.895 Y89.808 E0.13092
G1 X88.233 Y89.734 E0.14243
G1 X88.548 Y89.684 E0.15304
G1 X88.806 Y89.656 E0.16167
G1 X89.393 Y89.622 E0.18123
G1 X89.496 Y89.618 E0.18465
G1 X90.484 Y89.6 E0.21752
G1 X91.908 Y89.6 E0.26488
G1 X94.697 Y89.561 E0.35765
G1 X97.48 Y89.442 E0.4503
G1 X100.192 Y89.25 E0.54073
G1 X102.93 Y88.979 E0.63224
G1 X105.688 Y88.626 E0.72472
G1 X108.387 Y88.202 E0.81559
G1 X111.102 Y87.697 E0.90744
G1 X114.388 Y86.98 E1.0193
G1 X115.364 Y86.749 E1.05266
G1 X115.725 Y86.679 E1.06489
G1 X116.06 Y86.637 E1.07612
G1 X116.271 Y86.624 E1.08315
G1 X117.513 Y86.6 E1.12447
G1 X146.486 Y86.6 E2.08812
G1 X147.75 Y86.624 E2.13017
G1 X148.04 Y86.646 E2.13984
G1 X148.365 Y86.695 E2.15077
G1 X148.629 Y86.748 E2.15973
G1 X149.037 Y86.856 E2.17376
G1 X149.405 Y86.983 E2.18671
G1 X149.598 Y87.061 E2.19364
G1 X149.831 Y87.167 E2.20215
G1 X150.226 Y87.378 E2.21704
G1 X150.581 Y87.604 E2.23104
G1 X150.761 Y87.734 E2.23843
G1 X150.972 Y87.901 E2.24738
G1 X151.281 Y88.178 E2.26118
G1 X151.571 Y88.481 E2.27513
G1 X151.727 Y88.664 E2.28313
G1 X151.916 Y88.909 E2.29342
G1 X152.174 Y89.295 E2.30886
G1 X152.379 Y89.66 E2.32278
G1 X152.483 Y89.874 E2.3307
G1 X152.588 Y90.119 E2.33956
G1 X152.729 Y90.514 E2.35351
G1 X152.832 Y90.879 E2.36613
G1 X152.921 Y91.327 E2.38132
G1 X152.963 Y91.658 E2.39242
G1 X152.976 Y91.869 E2.39945
G1 X153 Y93.105 E2.44056
G1 X153 Y141.87 E4.06249
G1 X152.976 Y143.149 E4.10504
G1 X152.95 Y143.468 E4.11569
G1 X152.883 Y143.886 E4.12977
G1 X152.776 Y144.329 E4.14493
G1 X152.642 Y144.741 E4.15933
G1 X152.474 Y145.146 E4.17392
G1 X152.271 Y145.543 E4.18875
G1 X152.041 Y145.917 E4.20335
G1 X151.785 Y146.267 E4.21777
G1 X151.508 Y146.59 E4.23193
G1 X151.186 Y146.911 E4.24705
G1 X150.837 Y147.207 E4.26227
G1 X150.504 Y147.448 E4.27594
G1 X150.131 Y147.677 E4.2905
G1 X149.742 Y147.876 E4.30503
G1 X149.345 Y148.04 E4.31932
G1 X149.107 Y148.122 E4.32769
G1 X148.709 Y148.234 E4.34144
G1 X148.278 Y148.32 E4.35606
G1 X147.94 Y148.363 E4.36739
G1 X147.729 Y148.376 E4.37442
G1 X146.487 Y148.4 E4.41574
G1 X137.165 Y148.4 E4.72579
G1 X136.381 Y148.388 E4.75187
G1 X136.217 Y148.381 E4.75733
G1 X133.462 Y148.302 E4.849
G1 X130.709 Y148.302 E4.94057
G1 X127.156 Y148.4 E5.05878
G1 X117.514 Y148.4 E5.37948
G1 X116.252 Y148.376 E5.42146
G1 X115.935 Y148.35 E5.43204
G1 X115.537 Y148.288 E5.44544
G1 X115.253 Y148.226 E5.4551
G1 X115.025 Y148.17 E5.46291
G1 X112.364 Y147.561 E5.55371
G1 X109.632 Y147.016 E5.64636
G1 X106.948 Y146.56 E5.73691
G1 X104.186 Y146.17 E5.82969
G1 X101.458 Y145.865 E5.92099
G1 X98.712 Y145.635 E6.01264
G1 X95.959 Y145.482 E6.10435
G1 X91.959 Y145.4 E6.23741
G1 X90.484 Y145.4 E6.28647
G1 X89.368 Y145.38 E6.3236
G1 X89.193 Y145.37 E6.32943
G1 X88.599 Y145.319 E6.34926
G1 X88.282 Y145.275 E6.3599
G1 X87.928 Y145.204 E6.37191
G1 X87.684 Y145.14 E6.3803
G1 X87.051 Y144.945 E6.40233
G1 X86.72 Y144.822 E6.41407
G1 X86.416 Y144.689 E6.42511
G1 X86.177 Y144.57 E6.43399
G1 X85.571 Y144.227 E6.45715
G1 X85.283 Y144.042 E6.46854
G1 X85.038 Y143.866 E6.47857
G1 X84.826 Y143.696 E6.48761
G1 X84.288 Y143.217 E6.51157
G1 X84.025 Y142.946 E6.52413
G1 X83.573 Y142.407 E6.54752
G1 X83.381 Y142.151 E6.55817
G1 X83.198 Y141.876 E6.56915
G1 X83.061 Y141.644 E6.57811
G1 X82.738 Y141.033 E6.6011
G1 X82.601 Y140.735 E6.61201
G1 X82.486 Y140.446 E6.62235
G1 X82.386 Y140.151 E6.63272
G1 X82.208 Y139.504 E6.65503
G1 X82.131 Y139.147 E6.66718
G1 X82.084 Y138.849 E6.67721
G1 X82.056 Y138.594 E6.68575
G1 X82.022 Y138.007 E6.7053
G1 X82.018 Y137.904 E6.70873
G1 X82 Y136.917 E6.74157
G1 X82 Y98.084 E8.03316
G1 X82.02 Y96.968 E8.07028
G1 X82.03 Y96.791 E8.07618
G1 X82.082 Y96.189 E8.09627
G1 X82.123 Y95.891 E8.10628
G1 X82.171 Y95.64 E8.11478
G1 X82.259 Y95.285 E8.12694
G1 X82.455 Y94.649 E8.14908
G1 X82.542 Y94.407 E8.15763
G1 X82.584 Y94.306 E8.16127
G1 X82.71 Y94.018 E8.17173
G1 X82.829 Y93.78 E8.18058
G1 X83.173 Y93.172 E8.20381
G1 X83.357 Y92.885 E8.21515
G1 X83.532 Y92.641 E8.22514
G1 X83.703 Y92.427 E8.23425
G1 X84.182 Y91.889 E8.25821
G1 X84.453 Y91.626 E8.27077
G0 F6000 X84.71 Y91.932
G1 F1200 X85.249 Y91.48 E8.29416
G1 X85.469 Y91.315 E8.30331
G1 X85.721 Y91.147 E8.31338
G1 X85.941 Y91.016 E8.3219
G1 X86.554 Y90.692 E8.34496
G1 X86.814 Y90.572 E8.35448
G1 X87.095 Y90.46 E8.36454
G1 X87.353 Y90.372 E8.37361
G1 X88.001 Y90.193 E8.39597
G1 X88.296 Y90.129 E8.40601
G1 X88.611 Y90.079 E8.41662
G1 X88.829 Y90.056 E8.42391
G1 X89.503 Y90.018 E8.44636
G1 X90.491 Y90 E8.47923
G1 X91.914 Y90 E8.52656
G1 X94.72 Y89.96 E8.6199
G1 X97.49 Y89.843 E8.71211
G1 X100.227 Y89.649 E8.80337
G1 X102.985 Y89.375 E8.89555
G1 X105.73 Y89.024 E8.9876
G1 X108.451 Y88.596 E9.07921
G1 X111.194 Y88.087 E9.172
G1 X114.458 Y87.374 E9.28312
G1 X115.456 Y87.138 E9.31723
G1 X115.797 Y87.073 E9.32878
G1 X116.1 Y87.035 E9.33893
G1 X116.278 Y87.024 E9.34486
G1 X117.52 Y87 E9.38618
G1 X146.479 Y87 E10.34936
G1 X147.743 Y87.024 E10.39141
G1 X148.14 Y87.063 E10.40468
G1 X148.286 Y87.087 E10.4096
G1 X148.55 Y87.14 E10.41855
G1 X148.926 Y87.24 E10.43149
G1 X149.269 Y87.359 E10.44357
G1 X149.432 Y87.425 E10.44942
G1 X149.665 Y87.531 E10.45793
G1 X150.031 Y87.728 E10.47176
G1 X150.361 Y87.938 E10.48477
G1 X150.512 Y88.048 E10.49098
G1 X150.723 Y88.215 E10.49993
G1 X151.008 Y88.47 E10.51265
G1 X151.278 Y88.753 E10.52566
G1 X151.41 Y88.908 E10.53243
G1 X151.599 Y89.153 E10.54272
G1 X151.837 Y89.51 E10.55699
G1 X152.028 Y89.85 E10.56996
G1 X152.115 Y90.031 E10.57664
G1 X152.22 Y90.276 E10.58551
G1 X152.35 Y90.641 E10.5984
G1 X152.445 Y90.982 E10.61017
G1 X152.528 Y91.398 E10.62428
G1 X152.565 Y91.698 E10.63433
G1 X152.576 Y91.876 E10.64026
G1 X152.6 Y93.112 E10.68138
G1 X152.6 Y141.862 E12.30281
G1 X152.576 Y143.141 E12.34536
G1 X152.554 Y143.411 E12.35437
G1 X152.492 Y143.799 E12.36744
G1 X152.394 Y144.212 E12.38156
G1 X152.269 Y144.595 E12.39496
G1 X152.114 Y144.971 E12.40848
G1 X151.927 Y145.34 E12.42224
G1 X151.714 Y145.687 E12.43578
G1 X151.477 Y146.012 E12.44916
G1 X151.22 Y146.312 E12.4623
G1 X150.922 Y146.611 E12.47634
G1 X150.597 Y146.887 E12.49052
G1 X150.289 Y147.11 E12.50317
G1 X149.941 Y147.324 E12.51676
G1 X149.582 Y147.509 E12.53019
G1 X149.215 Y147.662 E12.54342
G1 X148.977 Y147.744 E12.55179
G1 X148.608 Y147.847 E12.56453
G1 X148.205 Y147.927 E12.5782
G1 X147.9 Y147.965 E12.58842
G1 X147.722 Y147.976 E12.59435
G1 X146.48 Y148 E12.63567
G1 X137.171 Y148 E12.94529
G1 X136.398 Y147.988 E12.971
G1 X136.242 Y147.981 E12.97619
G1 X133.473 Y147.902 E13.06833
G1 X130.698 Y147.902 E13.16062
G1 X127.156 Y148 E13.27848
G1 X117.521 Y148 E13.59894
G1 X116.259 Y147.976 E13.64092
G1 X115.991 Y147.954 E13.64986
G1 X115.62 Y147.896 E13.66235
G1 X115.348 Y147.838 E13.6716
G1 X115.133 Y147.785 E13.67897
G1 X112.425 Y147.166 E13.77136
G1 X109.706 Y146.623 E13.86358
G1 X106.965 Y146.157 E13.95605
G1 X104.254 Y145.775 E14.04711
G1 X101.499 Y145.467 E14.13932
G1 X98.767 Y145.238 E14.2305
G1 X95.99 Y145.083 E14.32301
G1 X91.918 Y145 E14.45847
G1 X90.492 Y145 E14.5059
G1 X89.376 Y144.98 E14.54302
G1 X89.227 Y144.972 E14.54799
G1 X88.633 Y144.921 E14.56782
G1 X88.358 Y144.882 E14.57705
G1 X88.107 Y144.833 E14.58556
G1 X87.801 Y144.757 E14.59605
G1 X87.168 Y144.562 E14.61808
G1 X86.88 Y144.456 E14.62828
G1 X86.576 Y144.323 E14.63932
G1 X86.374 Y144.222 E14.64683
G1 X85.768 Y143.879 E14.66999
G1 X85.516 Y143.717 E14.67996
G1 X85.271 Y143.541 E14.68999
G1 X85.092 Y143.397 E14.69763
G1 X84.554 Y142.918 E14.72159
G1 X84.331 Y142.689 E14.73222
G1 X83.879 Y142.15 E14.75562
G1 X83.713 Y141.928 E14.76484
G1 X83.538 Y141.664 E14.77537
G1 X83.415 Y141.457 E14.78338
G1 X83.092 Y140.846 E14.80637
G1 X82.972 Y140.586 E14.81589
G1 X82.86 Y140.305 E14.82595
G1 X82.772 Y140.045 E14.83508
G1 X82.594 Y139.398 E14.8574
G1 X82.526 Y139.085 E14.86805
G1 X82.479 Y138.787 E14.87809
G1 X82.456 Y138.571 E14.88531
G1 X82.418 Y137.897 E14.90777
G1 X82.4 Y136.91 E14.9406
G1 X82.4 Y98.092 E16.23169
G1 X82.42 Y96.976 E16.26882
G1 X82.428 Y96.826 E16.27381
G1 X82.48 Y96.224 E16.29391
G1 X82.516 Y95.966 E16.30257
G1 X82.564 Y95.715 E16.31107
G1 X82.642 Y95.403 E16.32177
G1 X82.838 Y94.767 E16.3439
G1 X82.95 Y94.466 E16.35459
G1 X83.076 Y94.178 E16.36504
G1 X83.177 Y93.977 E16.37252
G1 X83.521 Y93.369 E16.39576
G1 X83.682 Y93.118 E16.40568
G1 X83.857 Y92.874 E16.41566
G1 X84.002 Y92.693 E16.42338
G1 X84.481 Y92.155 E16.44733
G1 X84.71 Y91.932 E16.45797
G1 F1800 E14.45797
G0 F6000 X89.59 Y91.536
G0 X104.832 Y91.553
G0 X106.01 Y91.77
G0 X107.124 Y92.233
G0 X108.111 Y92.921
G0 X108.955 Y93.834
G0 X109.553 Y94.85
G0 X112.938 Y103.863
G0 X112.936 Y142.838
G0 X112.99 Y143.426
G0 X113.124 Y143.96
G0 X113.353 Y144.499
G0 X113.646 Y144.969
G0 X114.033 Y145.414
G0 X114.484 Y145.79
G0 X114.962 Y146.078
G0 X115.505 Y146.298
G0 X116.04 Y146.422
G0 X116.57 Y146.464
G0 X127.661 Y146.461
G0 X128.114 Y146.008
G0 X137.367 Y114.19
G1 F1800 E16.45797
G1 F1200 X137.464 Y114.164 E16.46131
G1 X137.813 Y114 E16.47413
G1 X137.749 Y114.586 E16.49374
G1 X137.706 Y114.763 E16.4998
G1 X137.614 Y114.557 E16.5073
G1 X137.367 Y114.19 E16.52201
G0 F6000 X137.059 Y114.442
G1 F1200 X136.768 Y114.141 E16.53594
G1 X136.521 Y113.968 E16.54597
G1 X136.954 Y113.89 E16.5606
G1 X137.357 Y113.777 E16.57452
G1 X137.732 Y113.589 E16.58847
G1 X138.065 Y113.334 E16.60242
G1 X138.315 Y113.052 E16.61496
G1 X138.286 Y113.345 E16.62475
G1 X138.144 Y114.66 E16.66874
G1 X137.706 Y116.427 E16.72929
G1 X137.316 Y116.993 E16.75215
G1 X137.06 Y117.18 E16.7627
G1 X137.072 Y117.167 E16.76329
G1 X137.297 Y116.813 E16.77724
G1 X137.452 Y116.424 E16.79117
G1 X137.529 Y116.012 E16.80511
G1 X137.527 Y115.593 E16.81904
G1 X137.445 Y115.182 E16.83298
G1 X137.288 Y114.794 E16.8469
G1 X137.059 Y114.442 E16.86087
G0 F6000 X136.734 Y114.677
G1 F1200 X136.465 Y114.409 E16.8735
G1 X136.073 Y114.17 E16.88877
G1 X134.496 Y113.465 E16.94622
G1 X133.155 Y112.858 E16.99518
G1 X132.349 Y112.188 E17.03004
G1 X131.443 Y111.06 E17.07816
G1 X130.737 Y110.159 E17.11623
G1 X130.6 Y109.67 E17.13312
G1 X130.639 Y109.551 E17.13729
G1 X130.768 Y109.501 E17.14189
G1 X131.241 Y109.86 E17.16164
G1 X131.803 Y110.826 E17.19881
G1 X132.053 Y111.159 E17.21266
G1 X133.22 Y112.39 E17.26908
G1 X133.508 Y112.636 E17.28168
G1 X133.847 Y112.819 E17.29449
G1 X135.446 Y113.47 E17.35191
G1 X135.81 Y113.575 E17.36451
G1 X136.188 Y113.602 E17.37712
G1 X136.442 Y113.575 E17.38561
G1 X136.883 Y113.496 E17.40051
G1 X137.247 Y113.39 E17.41312
G1 X137.581 Y113.211 E17.42573
G1 X137.87 Y112.965 E17.43835
G1 X138.101 Y112.665 E17.45094
G1 X138.264 Y112.323 E17.46354
G1 X138.351 Y111.954 E17.47615
G1 X138.363 Y111.616 E17.4874
G1 X138.251 Y109.744 E17.54978
G1 X138.209 Y109.451 E17.55962
G1 X137.891 Y108.062 E17.60702
G1 X137.898 Y107.043 E17.64091
G1 X138.233 Y105.729 E17.68601
G1 X138.283 Y105.431 E17.69606
G1 X138.404 Y103.948 E17.74555
G1 X138.395 Y103.57 E17.75812
G1 X138.307 Y103.201 E17.77074
G1 X138.222 Y103.002 E17.77794
G1 X137.818 Y102.188 E17.80816
G1 X137.615 Y101.868 E17.82077
G1 X137.349 Y101.598 E17.83337
G1 X137.033 Y101.389 E17.84598
G1 X136.68 Y101.252 E17.85857
G1 X136.306 Y101.191 E17.87117
G1 X136 Y101.2 E17.88135
G1 X134.46 Y101.377 E17.93291
G1 X134.064 Y101.469 E17.94643
G1 X133.737 Y101.585 E17.95797
G1 X133.395 Y101.748 E17.97058
G1 X133.095 Y101.98 E17.98319
G1 X132.851 Y102.269 E17.99577
G1 X132.651 Y102.657 E18.01029
G1 X132.071 Y104.226 E18.06592
G1 X131.565 Y105.104 E18.09963
G1 X131.244 Y105.358 E18.11324
G1 X131.147 Y105.317 E18.11675
G1 X131.53 Y104.452 E18.14821
G1 X132.011 Y103.25 E18.19127
G1 X132.111 Y102.902 E18.20331
G1 X132.283 Y101.955 E18.23533
G1 X132.811 Y101.455 E18.25951
G1 X133.726 Y101.162 E18.29147
G1 X134.909 Y100.888 E18.33186
G1 X135.895 Y100.888 E18.36465
G1 X137.084 Y100.967 E18.40428
G1 X137.867 Y101.466 E18.43517
G1 X138.603 Y102.911 E18.4891
G1 X138.767 Y104.05 E18.52738
G1 X138.557 Y105.504 E18.57624
G1 X138.283 Y107.172 E18.63246
G1 X138.261 Y107.551 E18.64509
G1 X138.322 Y107.937 E18.65808
G1 X138.664 Y109.195 E18.70144
G1 X138.716 Y110.612 E18.74861
G1 X138.816 Y112.072 E18.79728
G1 X138.683 Y113.388 E18.84127
G1 X138.538 Y114.733 E18.88627
G1 X138.076 Y116.594 E18.95004
G1 X137.605 Y117.279 E18.97769
G1 X137.129 Y117.625 E18.99726
G1 X135.918 Y117.92 E19.03872
G1 X134.168 Y118.138 E19.09737
G1 X133.691 Y118.266 E19.1138
G1 X132.812 Y118.637 E19.14553
G1 X132.48 Y118.82 E19.15814
G1 X132.194 Y119.069 E19.17076
G1 X131.967 Y119.372 E19.18335
G1 X131.808 Y119.716 E19.19595
G1 X131.724 Y120.085 E19.20854
G1 X131.719 Y120.456 E19.22088
G1 X131.86 Y122.02 E19.27311
G1 X131.896 Y123.527 E19.32325
G1 X131.932 Y123.846 E19.33392
G1 X132.305 Y125.665 E19.39568
G1 X132.419 Y126.026 E19.40827
G1 X132.601 Y126.346 E19.42052
G1 X133.483 Y127.586 E19.47113
G1 X133.749 Y127.884 E19.48442
G1 X135 Y129.004 E19.54026
G1 X135.308 Y129.226 E19.55289
G1 X135.494 Y129.319 E19.55981
G1 X135.822 Y129.459 E19.57167
G1 X136.185 Y129.57 E19.58429
G1 X136.562 Y129.603 E19.59688
G1 X136.938 Y129.556 E19.60948
G1 X137.296 Y129.431 E19.6221
G1 X137.62 Y129.235 E19.63469
G1 X137.896 Y128.975 E19.6473
G1 X138.111 Y128.662 E19.65993
G1 X138.255 Y128.312 E19.67252
G1 X138.329 Y127.811 E19.68936
G1 X138.335 Y126.446 E19.73477
G1 X138.511 Y125.599 E19.76354
G1 X138.587 Y125.618 E19.76614
G1 X138.709 Y126.191 E19.78563
G1 X138.679 Y127.592 E19.83224
G1 X138.644 Y128.849 E19.87406
G1 X138.522 Y129.224 E19.88718
G1 X137.759 Y129.759 E19.91817
G1 X136.88 Y130 E19.94849
G1 X135.633 Y129.982 E19.98997
G1 X134.513 Y129.177 E20.03584
G1 X133.537 Y128.222 E20.08126
G1 X132.638 Y127.188 E20.12683
G1 X132.058 Y125.963 E20.17191
G1 X131.662 Y124.628 E20.21822
G1 X131.42 Y123.218 E20.26581
G1 X131.203 Y121.492 E20.32367
G1 X131.161 Y119.922 E20.3759
G1 X131.111 Y119.547 E20.38849
G1 X130.984 Y119.19 E20.40109
G1 X130.784 Y118.868 E20.4137
G1 X130.522 Y118.594 E20.42631
G1 X130.208 Y118.382 E20.43891
G1 X129.856 Y118.24 E20.45153
G1 X129.483 Y118.175 E20.46412
G1 X129.281 Y118.173 E20.47084
G1 X127.632 Y118.247 E20.52574
G1 X127.258 Y118.304 E20.53833
G1 X126.903 Y118.437 E20.55094
G1 X126.585 Y118.643 E20.56354
G1 X126.316 Y118.91 E20.57614
G1 X126.109 Y119.228 E20.58876
G1 X125.965 Y119.614 E20.60247
G1 X125.644 Y120.915 E20.64704
G1 X125.592 Y121.385 E20.66276
G1 X125.627 Y123.013 E20.71692
G1 X125.582 Y124.532 E20.76747
G1 X125.582 Y124.639 E20.77103
G1 X125.627 Y126.152 E20.82137
G1 X125.543 Y127.644 E20.87107
G1 X125.543 Y127.849 E20.87789
G1 X125.628 Y129.312 E20.92663
G1 X125.628 Y130.738 E20.97406
G1 X125.66 Y131.077 E20.98539
G1 X125.804 Y131.827 E21.01079
G1 X125.915 Y132.19 E21.02341
G1 X126.098 Y132.521 E21.03599
G1 X126.347 Y132.807 E21.04861
G1 X126.651 Y133.034 E21.06123
G1 X126.995 Y133.193 E21.07383
G1 X127.364 Y133.276 E21.08641
G1 X127.626 Y133.287 E21.09513
G1 X129.327 Y133.235 E21.15173
G1 X130.199 Y133.18 E21.18079
G1 X131.103 Y133.648 E21.21465
G1 X131.456 Y133.786 E21.22726
G1 X131.796 Y133.845 E21.23873
G1 X132.613 Y133.907 E21.26599
G1 X132.739 Y133.998 E21.27116
