;FLAVOR:Marlin
;TIME:6676
;Filament used: 4.91308m
;Layer height: 0.2
;MINX:82.415
;MINY:91.6
;MINZ:0.2
;MAXX:152.585
;MAXY:143.4
;MAXZ:19
;Generated with Cura_SteamEngine 4.13.1
M140 S60
M105
M190 S60
M104 S195
M105
M109 S195
M82 ;absolute extrusion mode
; Ender 3 Custom Start G-code
G92 E0 ; Reset Extruder
G28 ; Home all axes
G1 Z2.0 F3000 ; Move Z Axis up little to prevent scratching of Heat Bed
G1 X0.1 Y20 Z0.3 F5000.0 ; Move to start position
G1 X0.1 Y200.0 Z0.3 F1500.0 E15 ; Draw the first line
G1 X0.4 Y200.0 Z0.3 F5000.0 ; Move to side a little
G1 X0.4 Y20 Z0.3 F1500.0 E30 ; Draw the second line
G92 E0 ; Reset Extruder
G1 Z2.0 F3000 ; Move Z Axis up little to prevent scratching of Heat Bed
G1 X5 Y20 Z0.3 F5000.0 ; Move over to prevent blob squish
G92 E0
G92 E0
G1 F1800 E-2
;LAYER_COUNT:95
;LAYER:0
M107
G0 F6000 X84.231 Y93.087 Z0.2
;TYPE:SKIRT
G1 F1800 E0
G1 F1200 X84.421 Y92.92 E0.00841
G1 X84.762 Y92.656 E0.02276
G1 X85.119 Y92.42 E0.03699
G1 X85.481 Y92.217 E0.05079
G1 X85.883 Y92.033 E0.0655
G1 X86.068 Y91.961 E0.0721
G1 X86.305 Y91.879 E0.08044
G1 X86.706 Y91.766 E0.0943
G1 X87.137 Y91.68 E0.10892
G1 X87.462 Y91.639 E0.11981
G1 X87.593 Y91.629 E0.12418
G1 X87.971 Y91.612 E0.13677
G1 X88.793 Y91.6 E0.16411
G1 X111.072 Y91.6 E0.90511
G1 X112.513 Y91.629 E0.95305
G1 X115.096 Y91.727 E1.03902
G1 X117.851 Y91.756 E1.13066
G1 X120.627 Y91.705 E1.22301
G1 X122.523 Y91.627 E1.28612
G1 X123.928 Y91.6 E1.33286
G1 X146.071 Y91.6 E2.06934
G1 X147.335 Y91.624 E2.11139
G1 X147.625 Y91.646 E2.12106
G1 X147.95 Y91.695 E2.13199
G1 X148.214 Y91.748 E2.14095
G1 X148.622 Y91.856 E2.15499
G1 X148.99 Y91.983 E2.16793
G1 X149.183 Y92.061 E2.17486
G1 X149.416 Y92.167 E2.18337
G1 X149.811 Y92.378 E2.19827
G1 X150.166 Y92.604 E2.21226
G1 X150.346 Y92.734 E2.21965
G1 X150.557 Y92.901 E2.2286
G1 X150.866 Y93.178 E2.2424
G1 X151.156 Y93.481 E2.25635
G1 X151.312 Y93.664 E2.26435
G1 X151.501 Y93.909 E2.27464
G1 X151.759 Y94.295 E2.29008
G1 X151.964 Y94.66 E2.30401
G1 X152.068 Y94.874 E2.31192
G1 X152.173 Y95.119 E2.32078
G1 X152.312 Y95.508 E2.33452
G1 X152.416 Y95.875 E2.34721
G1 X152.506 Y96.327 E2.36254
G1 X152.548 Y96.658 E2.37364
G1 X152.561 Y96.868 E2.38063
G1 X152.585 Y98.094 E2.42142
G1 X152.585 Y136.87 E3.71111
G1 X152.561 Y138.149 E3.75366
G1 X152.535 Y138.468 E3.76431
G1 X152.468 Y138.886 E3.77839
G1 X152.361 Y139.329 E3.79355
G1 X152.227 Y139.741 E3.80795
G1 X152.059 Y140.146 E3.82254
G1 X151.848 Y140.556 E3.83787
G1 X151.625 Y140.916 E3.85196
G1 X151.379 Y141.254 E3.86586
G1 X151.093 Y141.59 E3.88054
G1 X150.775 Y141.907 E3.89547
G1 X150.423 Y142.207 E3.91086
G1 X150.089 Y142.448 E3.92456
G1 X149.716 Y142.677 E3.93911
G1 X149.327 Y142.876 E3.95365
G1 X148.93 Y143.04 E3.96793
G1 X148.692 Y143.122 E3.9763
G1 X148.294 Y143.234 E3.99006
G1 X147.863 Y143.32 E4.00467
G1 X147.525 Y143.363 E4.01601
G1 X147.314 Y143.376 E4.02304
G1 X146.072 Y143.4 E4.06435
G1 X123.928 Y143.4 E4.80087
G1 X122.533 Y143.372 E4.84727
G1 X119.847 Y143.27 E4.93668
G1 X117.084 Y143.242 E5.02858
G1 X112.984 Y143.345 E5.16499
G1 X112.024 Y143.389 E5.19695
G1 X111.24 Y143.4 E5.22303
G1 X88.929 Y143.4 E5.9651
G1 X87.666 Y143.376 E6.00711
G1 X87.347 Y143.35 E6.01776
G1 X86.924 Y143.281 E6.03201
G1 X86.678 Y143.226 E6.0404
G1 X86.271 Y143.11 E6.05447
G1 X85.847 Y142.952 E6.06952
G1 X85.451 Y142.767 E6.08406
G1 X85.071 Y142.552 E6.09858
G1 X84.712 Y142.31 E6.11298
G1 X84.373 Y142.041 E6.12737
G1 X84.048 Y141.737 E6.14217
G1 X83.901 Y141.583 E6.14926
G1 X83.734 Y141.393 E6.15767
G1 X83.47 Y141.052 E6.17201
G1 X83.234 Y140.695 E6.18625
G1 X83.03 Y140.33 E6.20015
G1 X82.85 Y139.938 E6.2145
G1 X82.775 Y139.745 E6.22139
G1 X82.693 Y139.507 E6.22976
G1 X82.581 Y139.109 E6.24351
G1 X82.495 Y138.678 E6.25813
G1 X82.453 Y138.349 E6.26916
G1 X82.439 Y138.131 E6.27643
G1 X82.415 Y136.87 E6.31838
G1 X82.415 Y98.095 E7.60804
G1 X82.439 Y96.85 E7.64945
G1 X82.465 Y96.532 E7.66007
G1 X82.532 Y96.114 E7.67415
G1 X82.639 Y95.671 E7.6893
G1 X82.773 Y95.259 E7.70371
G1 X82.946 Y94.844 E7.71867
G1 X83.151 Y94.445 E7.73359
G1 X83.383 Y94.069 E7.74828
G1 X83.625 Y93.739 E7.76189
G1 X83.907 Y93.41 E7.77631
G1 X84.231 Y93.087 E7.79152
G0 F6000 X84.495 Y93.388
G1 F1200 X84.685 Y93.221 E7.79994
G1 X85 Y92.977 E7.81319
G1 X85.334 Y92.758 E7.82647
G1 X85.671 Y92.57 E7.83931
G1 X86.042 Y92.4 E7.85288
G1 X86.199 Y92.339 E7.85848
G1 X86.436 Y92.257 E7.86682
G1 X86.807 Y92.153 E7.87964
G1 X87.21 Y92.073 E7.8933
G1 X87.501 Y92.037 E7.90306
G1 X87.612 Y92.029 E7.90676
G1 X87.977 Y92.012 E7.91891
G1 X88.799 Y92 E7.94625
G1 X111.065 Y92 E8.68682
G1 X112.498 Y92.029 E8.7345
G1 X115.077 Y92.127 E8.82034
G1 X117.854 Y92.156 E8.9127
G1 X120.652 Y92.105 E9.00578
G1 X122.531 Y92.027 E9.06833
G1 X123.936 Y92 E9.11507
G1 X146.064 Y92 E9.85105
G1 X147.328 Y92.024 E9.8931
G1 X147.725 Y92.063 E9.90637
G1 X147.871 Y92.087 E9.91129
G1 X148.135 Y92.14 E9.92024
G1 X148.511 Y92.24 E9.93318
G1 X148.854 Y92.359 E9.94526
G1 X149.017 Y92.425 E9.95111
G1 X149.25 Y92.531 E9.95962
G1 X149.616 Y92.728 E9.97345
G1 X149.946 Y92.938 E9.98646
G1 X150.097 Y93.048 E9.99267
G1 X150.308 Y93.215 E10.00162
G1 X150.593 Y93.47 E10.01434
G1 X150.863 Y93.753 E10.02735
G1 X150.995 Y93.908 E10.03412
G1 X151.184 Y94.153 E10.04441
G1 X151.422 Y94.51 E10.05868
G1 X151.613 Y94.85 E10.07165
G1 X151.7 Y95.031 E10.07833
G1 X151.805 Y95.276 E10.0872
G1 X151.933 Y95.635 E10.09987
G1 X152.029 Y95.978 E10.11172
G1 X152.113 Y96.398 E10.12597
G1 X152.15 Y96.698 E10.13602
G1 X152.161 Y96.876 E10.14195
G1 X152.185 Y98.102 E10.18274
G1 X152.185 Y136.862 E11.4719
G1 X152.161 Y138.141 E11.51445
G1 X152.139 Y138.411 E11.52346
G1 X152.077 Y138.799 E11.53653
G1 X151.979 Y139.212 E11.55064
G1 X151.854 Y139.595 E11.56404
G1 X151.699 Y139.971 E11.57757
G1 X151.505 Y140.351 E11.59176
G1 X151.298 Y140.686 E11.60486
G1 X151.07 Y141 E11.61777
G1 X150.805 Y141.312 E11.63138
G1 X150.51 Y141.608 E11.64528
G1 X150.184 Y141.886 E11.65953
G1 X149.874 Y142.11 E11.67225
G1 X149.526 Y142.324 E11.68584
G1 X149.167 Y142.509 E11.69927
G1 X148.8 Y142.662 E11.7125
G1 X148.562 Y142.744 E11.72087
G1 X148.193 Y142.847 E11.73361
G1 X147.79 Y142.927 E11.74728
G1 X147.485 Y142.965 E11.7575
G1 X147.307 Y142.976 E11.76343
G1 X146.065 Y143 E11.80475
G1 X123.936 Y143 E12.54076
G1 X122.548 Y142.972 E12.58693
G1 X119.866 Y142.87 E12.6762
G1 X117.078 Y142.842 E12.76894
G1 X112.993 Y142.945 E12.90485
G1 X112.019 Y142.989 E12.93728
G1 X111.235 Y143 E12.96335
G1 X88.936 Y143 E13.70502
G1 X87.673 Y142.976 E13.74704
G1 X87.404 Y142.954 E13.75601
G1 X87.011 Y142.891 E13.76925
G1 X86.765 Y142.836 E13.77764
G1 X86.388 Y142.728 E13.79068
G1 X85.994 Y142.58 E13.80468
G1 X85.627 Y142.408 E13.81816
G1 X85.274 Y142.208 E13.83165
G1 X84.942 Y141.983 E13.84499
G1 X84.628 Y141.732 E13.85836
G1 X84.326 Y141.45 E13.87211
G1 X84.202 Y141.319 E13.87811
G1 X84.035 Y141.129 E13.88652
G1 X83.791 Y140.814 E13.89977
G1 X83.572 Y140.48 E13.91306
G1 X83.383 Y140.141 E13.92596
G1 X83.217 Y139.778 E13.93924
G1 X83.153 Y139.615 E13.94506
G1 X83.071 Y139.377 E13.95344
G1 X82.968 Y139.008 E13.96618
G1 X82.888 Y138.605 E13.97984
G1 X82.851 Y138.308 E13.9898
G1 X82.839 Y138.124 E13.99593
G1 X82.815 Y136.863 E14.03788
G1 X82.815 Y98.103 E15.32704
G1 X82.839 Y96.858 E15.36846
G1 X82.861 Y96.589 E15.37744
G1 X82.923 Y96.201 E15.39051
G1 X83.021 Y95.788 E15.40462
G1 X83.146 Y95.405 E15.41802
G1 X83.305 Y95.021 E15.43185
G1 X83.495 Y94.649 E15.44574
G1 X83.71 Y94.3 E15.45937
G1 X83.934 Y93.993 E15.47201
G1 X84.195 Y93.688 E15.48537
G1 X84.495 Y93.388 E15.49948
G1 F1800 E13.49948
;MESH:PiezoBox.STL
G0 F6000 X84.405 Y96.574
G0 X86.605 Y97.247
G0 X86.588 Y138.024
G0 X86.842 Y138.645
G0 X87.349 Y139.081
G0 X87.746 Y139.212
G0 X111.883 Y139.8
;TYPE:WALL-INNER
G1 F1800 E15.49948
G1 F1200 X88.062 Y139.8 E16.29177
G1 X87.692 Y139.77 E16.30411
G1 X87.41 Y139.703 E16.31375
G1 X87.097 Y139.573 E16.32503
G1 X86.846 Y139.42 E16.3348
G1 X86.604 Y139.211 E16.34544
G1 X86.395 Y138.969 E16.35607
G1 X86.241 Y138.717 E16.3659
G1 X86.112 Y138.405 E16.37713
G1 X86.045 Y138.123 E16.38677
G1 X86.015 Y137.759 E16.39891
G1 X86.015 Y97.247 E17.74635
G1 X86.045 Y96.877 E17.75869
G1 X86.112 Y96.595 E17.76833
G1 X86.241 Y96.283 E17.77956
G1 X86.395 Y96.031 E17.78939
G1 X86.604 Y95.789 E17.80002
G1 X86.846 Y95.58 E17.81066
G1 X87.098 Y95.426 E17.82048
G1 X87.411 Y95.297 E17.83174
G1 X87.714 Y95.224 E17.84211
G1 X87.847 Y95.209 E17.84656
G1 X88.115 Y95.2 E17.85548
G1 X111.938 Y95.2 E18.64783
G1 X112.308 Y95.23 E18.66018
G1 X112.59 Y95.297 E18.66982
G1 X112.902 Y95.426 E18.68105
G1 X113.154 Y95.58 E18.69087
G1 X113.396 Y95.789 E18.70151
G1 X113.605 Y96.031 E18.71214
G1 X113.759 Y96.283 E18.72196
G1 X113.888 Y96.595 E18.73319
G1 X113.955 Y96.877 E18.74283
G1 X113.985 Y97.241 E18.75498
G1 X113.985 Y137.747 E20.10222
G1 X113.955 Y138.123 E20.11476
G1 X113.888 Y138.405 E20.1244
G1 X113.759 Y138.717 E20.13563
G1 X113.605 Y138.969 E20.14545
G1 X113.396 Y139.211 E20.15609
G1 X113.154 Y139.42 E20.16673
G1 X112.903 Y139.573 E20.1765
G1 X112.589 Y139.703 E20.18781
G1 X112.286 Y139.776 E20.19817
G1 X112.153 Y139.791 E20.20262
G1 X111.883 Y139.8 E20.21161
G0 F6000 X111.896 Y140.2
G1 F1200 X88.042 Y140.2 E21.005
G1 X87.631 Y140.167 E21.01871
G1 X87.284 Y140.084 E21.03058
G1 X86.917 Y139.932 E21.04379
G1 X86.61 Y139.744 E21.05576
G1 X86.32 Y139.495 E21.06848
G1 X86.069 Y139.203 E21.08128
G1 X85.883 Y138.898 E21.09316
G1 X85.731 Y138.531 E21.10638
G1 X85.648 Y138.184 E21.11824
G1 X85.615 Y137.78 E21.13172
G1 X85.615 Y97.227 E22.48052
G1 X85.648 Y96.816 E22.49424
G1 X85.731 Y96.469 E22.5061
G1 X85.883 Y96.102 E22.51932
G1 X86.069 Y95.797 E22.5312
G1 X86.32 Y95.505 E22.544
G1 X86.612 Y95.254 E22.55681
G1 X86.917 Y95.068 E22.56869
G1 X87.284 Y94.916 E22.5819
G1 X87.642 Y94.83 E22.59415
G1 X87.824 Y94.809 E22.60024
G1 X88.102 Y94.8 E22.6095
G1 X111.958 Y94.8 E23.40295
G1 X112.369 Y94.833 E23.41666
G1 X112.716 Y94.916 E23.42853
G1 X113.083 Y95.068 E23.44174
G1 X113.388 Y95.254 E23.45362
G1 X113.68 Y95.505 E23.46643
G1 X113.931 Y95.797 E23.47924
G1 X114.117 Y96.102 E23.49112
G1 X114.269 Y96.469 E23.50433
G1 X114.352 Y96.816 E23.5162
G1 X114.385 Y97.22 E23.52968
G1 X114.385 Y137.768 E24.87831
G1 X114.352 Y138.184 E24.89219
G1 X114.269 Y138.531 E24.90406
G1 X114.117 Y138.898 E24.91727
G1 X113.931 Y139.203 E24.92915
G1 X113.68 Y139.495 E24.94196
G1 X113.39 Y139.744 E24.95467
G1 X113.083 Y139.932 E24.96665
G1 X112.716 Y140.084 E24.97986
G1 X112.358 Y140.17 E24.9921
G1 X112.176 Y140.191 E24.9982
G1 X111.896 Y140.2 E25.00751
G0 F6000 X111.908 Y140.6
;TYPE:WALL-OUTER
G1 F1200 X88.023 Y140.6 E25.80193
G1 X87.57 Y140.564 E25.81705
G1 X87.157 Y140.465 E25.83117
G1 X86.737 Y140.291 E25.84629
G1 X86.373 Y140.068 E25.86049
G1 X86.036 Y139.779 E25.87526
G1 X85.745 Y139.439 E25.89014
G1 X85.524 Y139.078 E25.90422
G1 X85.35 Y138.658 E25.91934
G1 X85.251 Y138.245 E25.93347
G1 X85.215 Y137.8 E25.94832
G1 X85.215 Y97.208 E27.29841
G1 X85.251 Y96.755 E27.31353
G1 X85.35 Y96.342 E27.32765
G1 X85.524 Y95.922 E27.34277
G1 X85.745 Y95.561 E27.35685
G1 X86.036 Y95.221 E27.37173
G1 X86.376 Y94.93 E27.38662
G1 X86.737 Y94.709 E27.4007
G1 X87.157 Y94.535 E27.41582
G1 X87.57 Y94.436 E27.42994
G1 X87.799 Y94.409 E27.43761
G1 X88.09 Y94.4 E27.4473
G1 X111.977 Y94.4 E28.24178
G1 X112.43 Y94.436 E28.2569
G1 X112.843 Y94.535 E28.27102
G1 X113.263 Y94.709 E28.28614
G1 X113.624 Y94.93 E28.30022
G1 X113.964 Y95.221 E28.3151
G1 X114.255 Y95.561 E28.32999
G1 X114.476 Y95.922 E28.34407
G1 X114.65 Y96.342 E28.35919
G1 X114.749 Y96.755 E28.37331
G1 X114.785 Y97.2 E28.38816
G1 X114.785 Y137.792 E29.73826
G1 X114.749 Y138.245 E29.75337
G1 X114.65 Y138.658 E29.7675
G1 X114.476 Y139.078 E29.78262
G1 X114.255 Y139.439 E29.7967
G1 X113.964 Y139.779 E29.81158
G1 X113.627 Y140.068 E29.82635
G1 X113.263 Y140.291 E29.84055
G1 X112.843 Y140.465 E29.85567
G1 X112.43 Y140.564 E29.86979
G1 X112.201 Y140.591 E29.87746
G1 X111.908 Y140.6 E29.88721
G0 F6000 X111.902 Y140.161
G0 X111.869 Y139.41
;TYPE:SKIN
G1 F1200 X88.068 Y139.41 E30.67884
G1 X87.761 Y139.385 E30.68908
G1 X87.528 Y139.33 E30.69704
G1 X87.275 Y139.224 E30.70617
G1 X87.076 Y139.104 E30.7139
G1 X86.881 Y138.934 E30.7225
G1 X86.711 Y138.739 E30.7311
G1 X86.59 Y138.54 E30.73885
G1 X86.485 Y138.286 E30.74799
G1 X86.43 Y138.054 E30.75592
G1 X86.405 Y137.759 E30.76577
G1 X86.405 Y97.247 E32.1132
G1 X86.429 Y96.947 E32.12321
G1 X86.485 Y96.714 E32.13118
G1 X86.59 Y96.46 E32.14033
G1 X86.711 Y96.261 E32.14807
G1 X86.881 Y96.066 E32.15668
G1 X87.076 Y95.896 E32.16528
G1 X87.272 Y95.777 E32.17291
G1 X87.535 Y95.668 E32.18238
G1 X87.779 Y95.61 E32.19072
G1 X87.877 Y95.599 E32.194
G1 X88.129 Y95.59 E32.20238
G1 X111.932 Y95.59 E32.99408
G1 X112.238 Y95.615 E33.00429
G1 X112.471 Y95.67 E33.01225
G1 X112.725 Y95.775 E33.02139
G1 X112.924 Y95.896 E33.02914
G1 X113.119 Y96.066 E33.03774
G1 X113.289 Y96.261 E33.04635
G1 X113.41 Y96.46 E33.05409
G1 X113.515 Y96.714 E33.06323
G1 X113.57 Y96.946 E33.07116
G1 X113.595 Y97.241 E33.08101
G1 X113.595 Y137.747 E34.42825
G1 X113.57 Y138.054 E34.43849
G1 X113.515 Y138.286 E34.44642
G1 X113.41 Y138.54 E34.45556
G1 X113.289 Y138.739 E34.46331
G1 X113.119 Y138.934 E34.47191
G1 X112.924 Y139.104 E34.48052
G1 X112.725 Y139.224 E34.48825
G1 X112.466 Y139.332 E34.49758
G1 X112.123 Y139.401 E34.50922
G1 X111.869 Y139.41 E34.51767
G0 F6000 X87.721 Y139.272
G0 X87.736 Y139.213
G1 F1200 X86.599 Y138.076 E34.57115
G0 F6000 X86.564 Y137.476
G1 F1200 X88.337 Y139.249 E34.65455
G0 F6000 X88.903 Y139.249
G1 F1200 X86.564 Y136.91 E34.76457
G0 F6000 X86.564 Y136.345
G1 F1200 X89.468 Y139.249 E34.90116
G0 F6000 X90.034 Y139.249
G1 F1200 X86.564 Y135.779 E35.06438
G0 F6000 X86.564 Y135.213
G1 F1200 X90.6 Y139.249 E35.25422
G0 F6000 X91.165 Y139.249
G1 F1200 X86.564 Y134.647 E35.47066
G0 F6000 X86.564 Y134.082
G1 F1200 X91.731 Y139.249 E35.7137
G0 F6000 X92.297 Y139.249
G1 F1200 X86.564 Y133.516 E35.98336
G0 F6000 X86.564 Y132.95
G1 F1200 X92.862 Y139.249 E36.27963
G0 F6000 X93.428 Y139.249
G1 F1200 X86.564 Y132.385 E36.60249
G0 F6000 X86.564 Y131.819
G1 F1200 X93.994 Y139.249 E36.95197
G0 F6000 X94.559 Y139.249
G1 F1200 X86.564 Y131.253 E37.32806
G0 F6000 X86.564 Y130.688
G1 F1200 X95.125 Y139.249 E37.73074
G0 F6000 X95.691 Y139.249
G1 F1200 X86.564 Y130.122 E38.16004
G0 F6000 X86.564 Y129.556
G1 F1200 X96.257 Y139.249 E38.61597
G0 F6000 X96.822 Y139.249
G1 F1200 X86.564 Y128.991 E39.09848
G0 F6000 X86.564 Y128.425
G1 F1200 X97.388 Y139.249 E39.60761
G0 F6000 X97.954 Y139.249
G1 F1200 X86.564 Y127.859 E40.14336
G0 F6000 X86.564 Y127.294
G1 F1200 X98.519 Y139.249 E40.70568
G0 F6000 X99.085 Y139.249
G1 F1200 X86.564 Y126.728 E41.29463
G0 F6000 X86.564 Y126.162
G1 F1200 X99.651 Y139.249 E41.91021
G0 F6000 X100.216 Y139.249
G1 F1200 X86.564 Y125.597 E42.55235
G0 F6000 X86.564 Y125.031
G1 F1200 X100.782 Y139.249 E43.22112
G0 F6000 X101.348 Y139.249
G1 F1200 X86.564 Y124.465 E43.91652
G0 F6000 X86.564 Y123.899
G1 F1200 X101.913 Y139.249 E44.63851
G0 F6000 X102.479 Y139.249
G1 F1200 X86.564 Y123.334 E45.38711
G0 F6000 X86.564 Y122.768
G1 F1200 X103.045 Y139.249 E46.16232
G0 F6000 X103.61 Y139.249
G1 F1200 X86.564 Y122.202 E46.96414
G0 F6000 X86.564 Y121.637
G1 F1200 X104.176 Y139.249 E47.79255
G0 F6000 X104.742 Y139.249
G1 F1200 X86.564 Y121.071 E48.64759
G0 F6000 X86.564 Y120.505
G1 F1200 X105.307 Y139.249 E49.52922
G0 F6000 X105.873 Y139.249
G1 F1200 X86.564 Y119.94 E50.43746
G0 F6000 X86.564 Y119.374
G1 F1200 X106.439 Y139.249 E51.37232
G0 F6000 X107.005 Y139.249
G1 F1200 X86.564 Y118.808 E52.3338
G0 F6000 X86.564 Y118.243
G1 F1200 X107.57 Y139.249 E53.32186
G0 F6000 X108.136 Y139.249
G1 F1200 X86.564 Y117.677 E54.33654
G0 F6000 X86.564 Y117.111
G1 F1200 X108.702 Y139.249 E55.37784
G0 F6000 X109.267 Y139.249
G1 F1200 X86.564 Y116.546 E56.44572
G0 F6000 X86.564 Y115.98
G1 F1200 X109.833 Y139.249 E57.54023
G0 F6000 X110.399 Y139.249
G1 F1200 X86.564 Y115.414 E58.66135
G0 F6000 X86.564 Y114.848
G1 F1200 X110.964 Y139.249 E59.80908
G0 F6000 X111.53 Y139.249
G1 F1200 X86.564 Y114.283 E60.9834
G0 F6000 X86.564 Y113.717
