;FLAVOR:Marlin
;TIME:720
;Filament used: 0.543083m
;Layer height: 0.2
;MINX:103.426
;MINY:103.435
;MINZ:0.2
;MAXX:131.565
;MAXY:131.564
;MAXZ:8
;Generated with Cura_SteamEngine 4.13.1
M140 S60
M105
M190 S60
M104 S195
M105
M109 S195
M82 ;absolute extrusion mode
; Ender 3 Custom Start G-code
G92 E0 ; Reset Extruder
G28 ; Home all axes
G1 Z2.0 F3000 ; Move Z Axis up little to prevent scratching of Heat Bed
G1 X0.1 Y20 Z0.3 F5000.0 ; Move to start position
G1 X0.1 Y200.0 Z0.3 F1500.0 E15 ; Draw the first line
G1 X0.4 Y200.0 Z0.3 F5000.0 ; Move to side a little
G1 X0.4 Y20 Z0.3 F1500.0 E30 ; Draw the second line
G92 E0 ; Reset Extruder
G1 Z2.0 F3000 ; Move Z Axis up little to prevent scratching of Heat Bed
G1 X5 Y20 Z0.3 F5000.0 ; Move over to prevent blob squish
G92 E0
G92 E0
G1 F1800 E-2
;LAYER_COUNT:40
;LAYER:0
M107
G0 F6000 X107.615 Y107.497 Z0.2
;TYPE:SKIRT
G1 F1800 E0
G1 F1200 X107.685 Y107.428 E0.00327
G1 X108.073 Y107.063 E0.02099
G1 X108.162 Y106.983 E0.02497
G1 X108.455 Y106.73 E0.03784
G1 X108.826 Y106.428 E0.05375
G1 X108.913 Y106.36 E0.05743
G1 X109.206 Y106.139 E0.06963
G1 X109.307 Y106.066 E0.07378
G1 X109.704 Y105.793 E0.0898
G1 X110.02 Y105.588 E0.10233
G1 X110.128 Y105.521 E0.10656
G1 X110.516 Y105.292 E0.12154
G1 X110.948 Y105.054 E0.13795
G1 X111.058 Y104.996 E0.14208
G1 X111.413 Y104.82 E0.15526
G1 X111.852 Y104.619 E0.17132
G1 X112.265 Y104.446 E0.18621
G1 X112.373 Y104.404 E0.19007
G1 X112.921 Y104.201 E0.20951
G1 X113.268 Y104.086 E0.22166
G1 X113.36 Y104.057 E0.22487
G1 X113.747 Y103.945 E0.23827
G1 X113.856 Y103.916 E0.24202
G1 X114.459 Y103.767 E0.26268
G1 X114.751 Y103.706 E0.2726
G1 X115.443 Y103.586 E0.29596
G1 X115.787 Y103.539 E0.30751
G1 X116.402 Y103.479 E0.32806
G1 X116.865 Y103.449 E0.3435
G1 X116.98 Y103.444 E0.34732
G1 X117.385 Y103.435 E0.3608
G1 X117.804 Y103.438 E0.37473
G1 X117.927 Y103.441 E0.37883
G1 X118.498 Y103.47 E0.39784
G1 X118.774 Y103.492 E0.40705
G1 X119.437 Y103.569 E0.42925
G1 X119.549 Y103.584 E0.43301
G1 X119.929 Y103.645 E0.44581
G1 X120.276 Y103.71 E0.45755
G1 X120.41 Y103.739 E0.46211
G1 X121.01 Y103.881 E0.48262
G1 X121.42 Y103.992 E0.49675
G1 X121.702 Y104.077 E0.50654
G1 X121.814 Y104.113 E0.51046
G1 X122.422 Y104.325 E0.53187
G1 X122.525 Y104.363 E0.53552
G1 X122.771 Y104.459 E0.54431
G1 X123.327 Y104.699 E0.56445
G1 X123.634 Y104.843 E0.57573
G1 X123.733 Y104.892 E0.5794
G1 X124.267 Y105.17 E0.59942
G1 X124.573 Y105.342 E0.6111
G1 X124.662 Y105.395 E0.61454
G1 X125.094 Y105.662 E0.63144
G1 X125.187 Y105.722 E0.63512
G1 X125.502 Y105.933 E0.64773
G1 X125.594 Y105.997 E0.65145
G1 X125.993 Y106.288 E0.66788
G1 X126.248 Y106.486 E0.67862
G1 X126.34 Y106.561 E0.68257
G1 X126.763 Y106.917 E0.70095
G1 X127.091 Y107.211 E0.7156
G1 X127.177 Y107.292 E0.71953
G1 X127.474 Y107.584 E0.73339
G1 X127.87 Y107.998 E0.75244
G1 X128.103 Y108.258 E0.76405
G1 X128.521 Y108.762 E0.78583
G1 X128.718 Y109.016 E0.79652
G1 X128.78 Y109.1 E0.8
G1 X129.195 Y109.687 E0.82391
G1 X129.381 Y109.972 E0.83522
G1 X129.732 Y110.556 E0.85789
G1 X129.894 Y110.85 E0.86905
G1 X130.116 Y111.283 E0.88524
G1 X130.167 Y111.388 E0.88912
G1 X130.344 Y111.769 E0.90309
G1 X130.531 Y112.208 E0.91896
G1 X130.57 Y112.304 E0.92241
G1 X130.725 Y112.709 E0.93683
G1 X130.764 Y112.818 E0.94068
G1 X130.898 Y113.219 E0.95474
G1 X131.039 Y113.692 E0.97116
G1 X131.067 Y113.792 E0.97461
G1 X131.169 Y114.183 E0.98805
G1 X131.196 Y114.296 E0.99192
G1 X131.281 Y114.689 E1.00529
G1 X131.378 Y115.217 E1.02315
G1 X131.446 Y115.672 E1.03845
G1 X131.46 Y115.778 E1.042
G1 X131.498 Y116.122 E1.05352
G1 X131.508 Y116.23 E1.05712
G1 X131.541 Y116.676 E1.072
G1 X131.547 Y116.789 E1.07576
G1 X131.563 Y117.235 E1.0906
G1 X131.565 Y117.343 E1.0942
G1 X131.565 Y117.656 E1.10461
G1 X131.563 Y117.764 E1.1082
G1 X131.547 Y118.209 E1.12301
G1 X131.541 Y118.322 E1.12677
G1 X131.508 Y118.769 E1.14168
G1 X131.462 Y119.203 E1.1562
G1 X131.448 Y119.312 E1.15985
G1 X131.395 Y119.674 E1.17202
G1 X131.378 Y119.777 E1.17549
G1 X131.268 Y120.375 E1.19572
G1 X131.2 Y120.691 E1.20647
G1 X131.168 Y120.826 E1.21108
G1 X131.039 Y121.308 E1.22768
G1 X130.9 Y121.774 E1.24385
G1 X130.765 Y122.178 E1.25802
G1 X130.727 Y122.285 E1.2618
G1 X130.576 Y122.682 E1.27592
G1 X130.535 Y122.784 E1.27958
G1 X130.389 Y123.129 E1.29204
G1 X130.166 Y123.612 E1.30973
G1 X130.118 Y123.711 E1.31339
G1 X129.897 Y124.144 E1.32956
G1 X129.729 Y124.448 E1.34111
G1 X129.677 Y124.539 E1.3446
G1 X129.38 Y125.03 E1.36369
G1 X129.203 Y125.302 E1.37448
G1 X128.779 Y125.901 E1.39889
G1 X128.595 Y126.146 E1.40908
G1 X128.522 Y126.238 E1.41299
G1 X128.17 Y126.664 E1.43137
G1 X127.953 Y126.912 E1.44233
G1 X127.873 Y126.999 E1.44626
G1 X127.474 Y127.416 E1.46545
G1 X127.178 Y127.707 E1.47926
G1 X127.093 Y127.787 E1.48314
G1 X126.762 Y128.084 E1.49793
G1 X126.34 Y128.439 E1.51627
G1 X126.25 Y128.512 E1.52013
G1 X125.914 Y128.771 E1.53424
G1 X125.594 Y129.003 E1.54738
G1 X125.188 Y129.277 E1.56368
G1 X125.094 Y129.338 E1.5674
G1 X124.662 Y129.605 E1.58429
G1 X124.37 Y129.774 E1.59552
G1 X124.267 Y129.83 E1.59941
G1 X123.733 Y130.108 E1.61944
G1 X123.423 Y130.258 E1.63089
G1 X123.323 Y130.304 E1.63455
G1 X122.872 Y130.499 E1.6509
G1 X122.535 Y130.633 E1.66296
G1 X122.425 Y130.674 E1.66686
G1 X121.82 Y130.885 E1.68817
G1 X121.519 Y130.979 E1.69866
G1 X121.417 Y131.009 E1.7022
G1 X120.906 Y131.145 E1.71979
G1 X120.404 Y131.262 E1.73693
G1 X120.287 Y131.287 E1.74091
G1 X119.942 Y131.353 E1.75259
G1 X119.55 Y131.416 E1.7658
G1 X118.887 Y131.496 E1.78801
G1 X118.775 Y131.507 E1.79175
G1 X118.405 Y131.536 E1.8041
G1 X117.926 Y131.559 E1.82005
G1 X117.804 Y131.562 E1.8241
G1 X117.286 Y131.564 E1.84133
G1 X116.98 Y131.556 E1.85151
G1 X116.864 Y131.551 E1.85538
G1 X116.402 Y131.521 E1.87078
G1 X115.788 Y131.461 E1.89129
G1 X115.442 Y131.414 E1.90291
G1 X114.752 Y131.294 E1.9262
G1 X114.467 Y131.235 E1.93588
G1 X113.851 Y131.082 E1.95699
G1 X113.365 Y130.944 E1.9738
G1 X113.031 Y130.837 E1.98546
G1 X112.922 Y130.799 E1.9893
G1 X112.271 Y130.556 E2.01241
G1 X111.946 Y130.422 E2.0241
G1 X111.499 Y130.22 E2.04042
G1 X111.401 Y130.174 E2.04402
G1 X111.054 Y130.001 E2.05692
G1 X110.956 Y129.95 E2.06059
G1 X110.604 Y129.758 E2.07393
G1 X110.12 Y129.472 E2.09262
G1 X110.027 Y129.415 E2.09625
G1 X109.712 Y129.212 E2.10872
G1 X109.621 Y129.151 E2.11236
G1 X109.297 Y128.925 E2.1255
G1 X108.924 Y128.648 E2.14095
G1 X108.833 Y128.577 E2.14479
G1 X108.461 Y128.276 E2.16071
G1 X108.37 Y128.2 E2.16465
G1 X108.079 Y127.943 E2.17756
G1 X107.69 Y127.579 E2.19528
G1 X107.392 Y127.279 E2.20935
G1 X107.323 Y127.208 E2.21264
G1 X106.964 Y126.819 E2.23025
G1 X106.747 Y126.566 E2.24133
G1 X106.313 Y126.023 E2.26445
G1 X106.099 Y125.737 E2.27633
G1 X106.035 Y125.647 E2.28001
G1 X105.731 Y125.202 E2.29793
G1 X105.668 Y125.106 E2.30175
G1 X105.477 Y124.799 E2.31377
G1 X105.24 Y124.391 E2.32947
G1 X104.974 Y123.898 E2.3481
G1 X104.918 Y123.79 E2.35215
G1 X104.791 Y123.528 E2.36183
G1 X104.547 Y122.982 E2.38172
G1 X104.501 Y122.873 E2.38566
G1 X104.356 Y122.506 E2.39878
G1 X104.173 Y121.996 E2.4168
G1 X104.038 Y121.577 E2.43144
G1 X104.006 Y121.469 E2.43519
G1 X103.888 Y121.04 E2.44999
G1 X103.787 Y120.622 E2.46429
G1 X103.763 Y120.514 E2.46797
G1 X103.656 Y119.987 E2.48586
G1 X103.599 Y119.64 E2.49755
G1 X103.499 Y118.844 E2.52424
G1 X103.48 Y118.63 E2.53138
G1 X103.429 Y117.678 E2.56309
G1 X103.426 Y117.428 E2.57141
G1 X103.432 Y117.255 E2.57716
G1 X103.48 Y116.373 E2.60654
G1 X103.506 Y116.095 E2.61583
G1 X103.6 Y115.355 E2.64064
G1 X103.655 Y115.018 E2.652
G1 X103.761 Y114.491 E2.66988
G1 X103.788 Y114.372 E2.67393
G1 X103.916 Y113.853 E2.69171
G1 X104.011 Y113.515 E2.70339
G1 X104.137 Y113.113 E2.7174
G1 X104.173 Y113.004 E2.72122
G1 X104.356 Y112.494 E2.73924
G1 X104.501 Y112.127 E2.75237
G1 X104.548 Y112.016 E2.75638
G1 X104.794 Y111.469 E2.77633
G1 X104.97 Y111.111 E2.78959
G1 X105.188 Y110.7 E2.80507
G1 X105.249 Y110.591 E2.80922
G1 X105.529 Y110.115 E2.82759
G1 X105.784 Y109.715 E2.84337
G1 X105.961 Y109.456 E2.8538
G1 X106.284 Y109.015 E2.87198
G1 X106.354 Y108.924 E2.8758
G1 X106.76 Y108.418 E2.89738
G1 X106.96 Y108.188 E2.90752
G1 X107.318 Y107.798 E2.92512
G1 X107.615 Y107.497 E2.93919
G0 F6000 X107.96 Y107.719
G1 F1200 X108.348 Y107.354 E2.95691
G1 X108.424 Y107.285 E2.96032
G1 X108.644 Y107.094 E2.97001
G1 X109.154 Y106.679 E2.99188
G1 X109.447 Y106.458 E3.00409
G1 X109.534 Y106.395 E3.00766
G1 X109.858 Y106.171 E3.02076
G1 X110.238 Y105.924 E3.03583
G1 X110.331 Y105.866 E3.03948
G1 X110.791 Y105.596 E3.05722
G1 X111.141 Y105.404 E3.0705
G1 X111.591 Y105.179 E3.08723
G1 X111.672 Y105.14 E3.09022
G1 X112.096 Y104.949 E3.10569
G1 X112.419 Y104.815 E3.11732
G1 X113.06 Y104.576 E3.14007
G1 X113.391 Y104.466 E3.15167
G1 X113.471 Y104.441 E3.15446
G1 X113.858 Y104.329 E3.16786
G1 X114.471 Y104.175 E3.18888
G1 X114.82 Y104.1 E3.20076
G1 X115.512 Y103.98 E3.22411
G1 X115.827 Y103.937 E3.23469
G1 X116.428 Y103.878 E3.25477
G1 X116.891 Y103.848 E3.27021
G1 X117.296 Y103.836 E3.28368
G1 X117.802 Y103.838 E3.30051
G1 X117.908 Y103.841 E3.30404
G1 X118.467 Y103.869 E3.32265
G1 X118.743 Y103.891 E3.33186
G1 X118.842 Y103.901 E3.33517
G1 X119.487 Y103.979 E3.35678
G1 X119.856 Y104.038 E3.36921
G1 X120.203 Y104.103 E3.38095
G1 X120.319 Y104.128 E3.3849
G1 X120.905 Y104.267 E3.40493
G1 X121.395 Y104.401 E3.42183
G1 X121.682 Y104.491 E3.43183
G1 X122.29 Y104.703 E3.45325
G1 X122.625 Y104.832 E3.46519
G1 X122.716 Y104.869 E3.46845
G1 X123.246 Y105.101 E3.4877
G1 X123.549 Y105.247 E3.49888
G1 X124.083 Y105.525 E3.51891
G1 X124.375 Y105.69 E3.53006
G1 X124.452 Y105.735 E3.53303
G1 X124.884 Y106.002 E3.54992
G1 X125.279 Y106.265 E3.5657
G1 X125.68 Y106.554 E3.58214
G1 X125.748 Y106.604 E3.58495
G1 X126.003 Y106.802 E3.59569
G1 X126.505 Y107.223 E3.61748
G1 X126.823 Y107.508 E3.63168
G1 X126.898 Y107.578 E3.63509
G1 X127.185 Y107.861 E3.6485
G1 X127.581 Y108.275 E3.66756
G1 X127.803 Y108.523 E3.67863
G1 X127.862 Y108.591 E3.68162
G1 X128.213 Y109.016 E3.69995
G1 X128.4 Y109.259 E3.71015
G1 X128.454 Y109.332 E3.71317
G1 X128.862 Y109.909 E3.73668
G1 X129.039 Y110.178 E3.74739
G1 X129.336 Y110.67 E3.7665
G1 X129.496 Y110.955 E3.77737
G1 X129.538 Y111.033 E3.78032
G1 X129.76 Y111.466 E3.7965
G1 X129.981 Y111.938 E3.81384
G1 X130.018 Y112.021 E3.81686
G1 X130.163 Y112.364 E3.82924
G1 X130.351 Y112.852 E3.84664
G1 X130.385 Y112.946 E3.84996
G1 X130.515 Y113.333 E3.86354
G1 X130.656 Y113.806 E3.87996
G1 X130.782 Y114.284 E3.8964
G1 X130.869 Y114.673 E3.90966
G1 X130.887 Y114.761 E3.91264
G1 X131 Y115.382 E3.93364
G1 X131.051 Y115.73 E3.94534
G1 X131.1 Y116.166 E3.95993
G1 X131.109 Y116.259 E3.96304
G1 X131.142 Y116.705 E3.97791
G1 X131.163 Y117.25 E3.99605
G1 X131.165 Y117.343 E3.99915
G1 X131.165 Y117.656 E4.00956
G1 X131.147 Y118.194 E4.02746
G1 X131.142 Y118.292 E4.03072
G1 X131.101 Y118.831 E4.0487
G1 X131.053 Y119.254 E4.06286
G1 X131 Y119.616 E4.07503
G1 X130.893 Y120.21 E4.0951
G1 X130.809 Y120.607 E4.1086
G1 X130.781 Y120.724 E4.1126
G1 X130.656 Y121.193 E4.12875
G1 X130.517 Y121.659 E4.14492
G1 X130.386 Y122.05 E4.15864
G1 X130.353 Y122.142 E4.16189
G1 X130.202 Y122.539 E4.17601
G1 X130.02 Y122.973 E4.19167
G1 X129.803 Y123.443 E4.20888
G1 X129.762 Y123.529 E4.21205
G1 X129.541 Y123.962 E4.22822
G1 X129.38 Y124.253 E4.23928
G1 X129.335 Y124.332 E4.24231
G1 X129.038 Y124.823 E4.26139
G1 X128.869 Y125.081 E4.27165
G1 X128.453 Y125.669 E4.29561
G1 X128.277 Y125.903 E4.30535
G1 X127.861 Y126.409 E4.32713
G1 X127.653 Y126.647 E4.33765
G1 X127.584 Y126.722 E4.34104
G1 X127.124 Y127.201 E4.36312
G1 X126.825 Y127.491 E4.37698
G1 X126.505 Y127.778 E4.39128
G1 X126.083 Y128.133 E4.40962
G1 X126.005 Y128.196 E4.41295
G1 X125.749 Y128.395 E4.42374
G1 X125.359 Y128.679 E4.43978
G1 X125.282 Y128.733 E4.44291
G1 X124.884 Y128.998 E4.45881
G1 X124.452 Y129.265 E4.4757
G1 X124.172 Y129.426 E4.48645
G1 X124.083 Y129.475 E4.48983
G1 X123.467 Y129.794 E4.5129
G1 X123.164 Y129.936 E4.52403
G1 X122.633 Y130.164 E4.54325
G1 X122.293 Y130.296 E4.55538
G1 X121.688 Y130.507 E4.57669
G1 X121.402 Y130.597 E4.58666
G1 X120.901 Y130.733 E4.60393
G1 X120.815 Y130.755 E4.60688
G1 X120.212 Y130.894 E4.62746
G1 X119.781 Y130.975 E4.64205
G1 X119.488 Y131.021 E4.65191
G1 X118.84 Y131.099 E4.67362
G1 X118.743 Y131.109 E4.67687
G1 X118.386 Y131.136 E4.68877
G1 X117.907 Y131.159 E4.70472
G1 X117.801 Y131.162 E4.70825
G1 X117.296 Y131.164 E4.72505
G1 X116.89 Y131.152 E4.73856
G1 X116.428 Y131.122 E4.75396
G1 X115.828 Y131.063 E4.77401
G1 X115.511 Y131.02 E4.78465
G1 X114.821 Y130.9 E4.80794
G1 X114.551 Y130.844 E4.81711
G1 X113.948 Y130.694 E4.83778
G1 X113.861 Y130.671 E4.84077
G1 X113.475 Y130.56 E4.85413
G1 X113.156 Y130.457 E4.86528
G1 X113.061 Y130.424 E4.86863
G1 X112.424 Y130.186 E4.89124
G1 X112.099 Y130.052 E4.90294
G1 X111.665 Y129.856 E4.91877
G1 X111.58 Y129.816 E4.9219
G1 X111.148 Y129.599 E4.93798
G1 X110.713 Y129.36 E4.95449
G1 X110.324 Y129.129 E4.96953
G1 X109.929 Y128.875 E4.98515
G1 X109.526 Y128.596 E5.00146
G1 X109.456 Y128.547 E5.0043
G1 X109.163 Y128.328 E5.01646
G1 X108.713 Y127.965 E5.03569
G1 X108.634 Y127.899 E5.03912
G1 X108.415 Y127.707 E5.0488
G1 X107.964 Y127.286 E5.06932
G1 X107.889 Y127.214 E5.07278
G1 X107.617 Y126.936 E5.08572
G1 X107.258 Y126.547 E5.10332
G1 X107.052 Y126.308 E5.11382
G1 X106.625 Y125.774 E5.13656
G1 X106.421 Y125.5 E5.14792
G1 X106.365 Y125.422 E5.15112
G1 X106.061 Y124.977 E5.16904
G1 X105.87 Y124.675 E5.18093
G1 X105.823 Y124.598 E5.18393
G1 X105.542 Y124.112 E5.2026
G1 X105.326 Y123.709 E5.21781
G1 X105.278 Y123.615 E5.22132
G1 X105.116 Y123.277 E5.23378
G1 X104.912 Y122.819 E5.25046
G1 X104.872 Y122.725 E5.25386
G1 X104.765 Y122.457 E5.26345
G1 X104.55 Y121.861 E5.28453
G1 X104.419 Y121.455 E5.29872
G1 X104.391 Y121.362 E5.30195
G1 X104.277 Y120.946 E5.31629
G1 X104.155 Y120.434 E5.3338
G1 X104.048 Y119.907 E5.35168
G1 X103.996 Y119.59 E5.36237
G1 X103.896 Y118.794 E5.38905
G1 X103.88 Y118.609 E5.39523
G1 X103.829 Y117.657 E5.42694
G1 X103.829 Y117.34 E5.43748
G1 X103.88 Y116.395 E5.46896
G1 X103.903 Y116.145 E5.47731
G1 X103.997 Y115.405 E5.50212
G1 X104.047 Y115.097 E5.5125
G1 X104.153 Y114.57 E5.53038
G1 X104.176 Y114.467 E5.53389
G1 X104.301 Y113.961 E5.55122
G1 X104.42 Y113.543 E5.56568
G1 X104.518 Y113.233 E5.57649
G1 X104.733 Y112.629 E5.59781
G1 X104.765 Y112.543 E5.60087
G1 X104.872 Y112.275 E5.61046
G1 X105.117 Y111.722 E5.63058
G1 X105.282 Y111.379 E5.64324
G1 X105.541 Y110.888 E5.6617
G1 X105.594 Y110.793 E5.66532
G1 X105.867 Y110.329 E5.68323
G1 X106.114 Y109.941 E5.69853
G1 X106.345 Y109.606 E5.71206
G1 X106.606 Y109.252 E5.72669
G1 X107.003 Y108.752 E5.74792
G1 X107.199 Y108.522 E5.75797
G1 X107.613 Y108.069 E5.77838
G1 X107.685 Y107.993 E5.78187
G1 X107.96 Y107.719 E5.79478
G0 F6000 X108.182 Y108.061
G1 F1200 X108.622 Y107.646 E5.8149
G1 X108.687 Y107.587 E5.81781
G1 X108.96 Y107.351 E5.82982
G1 X109.395 Y106.999 E5.84843
G1 X109.762 Y106.724 E5.86368
G1 X110.14 Y106.464 E5.87894
G1 X110.456 Y106.259 E5.89147
G1 X110.535 Y106.21 E5.89456
G1 X110.983 Y105.947 E5.91184
G1 X111.333 Y105.755 E5.92512
G1 X111.769 Y105.537 E5.94133
G1 X112.183 Y105.348 E5.95647
G1 X112.572 Y105.185 E5.9705
G1 X112.651 Y105.154 E5.97332
G1 X113.199 Y104.951 E5.99275
G1 X113.515 Y104.847 E6.00382
G1 X113.969 Y104.714 E6.01955
G1 X114.049 Y104.692 E6.02231
G1 X114.567 Y104.563 E6.04007
G1 X114.888 Y104.494 E6.05099
G1 X115.58 Y104.374 E6.07435
G1 X115.867 Y104.335 E6.08398
G1 X116.377 Y104.284 E6.10103
G1 X116.917 Y104.248 E6.11903
G1 X117.306 Y104.236 E6.13197
G1 X117.799 Y104.238 E6.14837
G1 X118.366 Y104.264 E6.16725
G1 X118.711 Y104.29 E6.17876
G1 X118.795 Y104.298 E6.18156
G1 X119.343 Y104.363 E6.19992
G1 X119.718 Y104.421 E6.21254
G1 X120.129 Y104.497 E6.22644
G1 X120.227 Y104.517 E6.22977
G1 X120.801 Y104.653 E6.24939
G1 X121.211 Y104.764 E6.26351
G1 X121.468 Y104.842 E6.27245
G1 X122.158 Y105.081 E6.29673
G1 X122.48 Y105.205 E6.30821
G1 X122.557 Y105.236 E6.31097
G1 X123.008 Y105.432 E6.32733
G1 X123.364 Y105.602 E6.34045
G1 X123.974 Y105.921 E6.36334
G1 X124.242 Y106.076 E6.37364
